Newaita/actions/16/edit-table-delete-column.svg

<?xml version="1.0" encoding="UTF-8"?>
<svg xmlns="http://www.w3.org/2000/svg" xmlns:xlink="http://www.w3.org/1999/xlink" width="16pt" height="16pt" viewBox="0 0 16 16" version="1.1">
<g id="surface1">
<path style=" stroke:none;fill-rule:nonzero;fill:rgb(25.882354%,25.882354%,25.882354%);fill-opacity:1;" d="M 1.652344 0.785156 C 1.289062 0.785156 0.992188 1.082031 0.992188 1.449219 L 0.992188 14.347656 C 0.992188 14.714844 1.289062 15.007812 1.652344 15.007812 L 14.222656 15.007812 C 14.589844 15.007812 14.882812 14.714844 14.882812 14.347656 L 14.882812 1.449219 C 14.882812 1.082031 14.589844 0.785156 14.222656 0.785156 Z M 2.316406 1.777344 L 13.5625 1.777344 C 13.746094 1.777344 13.890625 1.925781 13.890625 2.109375 L 13.890625 5.417969 L 10.585938 5.417969 L 10.585938 6.410156 L 13.890625 6.410156 L 13.890625 9.71875 L 10.585938 9.71875 L 10.585938 10.710938 L 13.890625 10.710938 L 13.890625 13.6875 C 13.890625 13.871094 13.746094 14.015625 13.5625 14.015625 L 2.316406 14.015625 C 2.132812 14.015625 1.984375 13.871094 1.984375 13.6875 L 1.984375 10.710938 L 5.292969 10.710938 L 5.292969 9.71875 L 1.984375 9.71875 L 1.984375 6.410156 L 5.292969 6.410156 L 5.292969 5.417969 L 1.984375 5.417969 L 1.984375 2.109375 C 1.984375 1.925781 2.132812 1.777344 2.316406 1.777344 Z M 2.316406 1.777344 "/>
<path style=" stroke:none;fill-rule:nonzero;fill:rgb(93.725491%,32.549021%,31.37255%);fill-opacity:1;" d="M 5.292969 1.777344 L 5.292969 14.015625 L 6.285156 14.015625 L 6.285156 13.816406 L 9.59375 10.507812 L 9.59375 14.015625 L 10.585938 14.015625 L 10.585938 1.777344 L 9.59375 1.777344 L 6.285156 5.085938 L 6.285156 1.777344 Z M 9.59375 3.183594 L 9.59375 5.378906 L 6.285156 8.683594 L 6.285156 6.488281 Z M 9.59375 6.78125 L 9.59375 9.105469 L 6.285156 12.414062 L 6.285156 10.089844 Z M 9.59375 6.78125 "/>
</g>
</svg>

<svg xmlns="http://www.w3.org/2000/svg" width="16pt" height="16pt" viewBox="0 0 16 16"><path d="M1.652.785a.663.663 0 0 0-.66.664v12.899c0 .367.297.66.66.66h12.57c.368 0 .66-.293.66-.66V1.449a.66.66 0 0 0-.66-.664zm.664.992h11.246c.184 0 .329.149.329.332v3.309h-3.305v.992h3.305V9.72h-3.305v.992h3.305v2.976a.325.325 0 0 1-.329.329H2.316a.328.328 0 0 1-.332-.329v-2.976h3.309v-.992H1.984V6.41h3.309v-.992H1.984V2.109c0-.183.149-.332.332-.332zm0 0" fill="#424242"/><path d="M5.293 1.777v12.239h.992v-.2l3.309-3.308v3.508h.992V1.777h-.992L6.285 5.086V1.777zm4.3 1.407v2.195L6.286 8.684V6.488zm0 3.597v2.324l-3.308 3.31V10.09zm0 0" fill="#ef5350"/></svg>
